X: 196
T: Harry Schaefer's Varsoviana No 3
B: australian dance tunes
M:3/4
L:1/8
Q: 1/4=100
K:D
V:1 
A2||f>e d2 c2|B4 B2|g>f e2 d2|c4 A2|a>g f2 d2|B4 d2|c>B A2 B>c|d4:|!
AB||A2 d2 B>A|B2 e2 A>B|A2 a>g f>e|f4 AB|A2 d2 BA|B2 e2 A>B|/
A2 a>g f>e|d4:|
% abcbook-tune_id 62a0785013324efe486327a1


% abcbook-boost 0
% abcbook-tablature 
% abcbook-transpose 
% abcbook-lastupdated 1654683750286
% abcbook-soundfonts 
% abcbook-repeats 1


